X:1
T:[ID 1-130a]
T:[ID 1-130a]
T:Bezeichnung standardisiert: Triller Sesken; Drill Sesken
T:Urheber unbekannt Datum in der hier transkribierten schriftlichen Quelle: vermutlich vor 1767
C:Urheber unbekannt
C:Datum in der hier transkribierten schriftlichen Quelle: vermutlich vor 1767
L:1/8
M:6/8
K:D
V:1 treble 
V:1
 A | d2 d def | g2 g g2 g | fd/e/f/g/ ab/a/g/f/ | e>dc/B/ A2 :: z a/g/ | fed c/B/Ag | fed eAa | %8
 fd/e/f/d/ e/c/Ag | f/g/a/e/f/d/ e2 a | bag fd/e/f/g/ | f/a/f/d/e/c/ d2 :| %12

